X: 1
T: Bluebell Hornpipe
R: 3/2 hornpipe
Z: 2020 John Chambers <jc:trillian.mit.edu>
S: https://www.facebook.com/groups/Fiddletuneoftheday/ 2020-10-22
S: https://www.facebook.com/groups/Fiddletuneoftheday/photos/
B: Walsh "Third Book of the most Celebrated jiggs, Lancashire hornpipes, ..." (title: "Blew Bell")
M: 3/2
L: 1/8
K: Dmix
|: A4 FGAF D4   | BAGF EFGE C2E2 | AGFE DEFD B,2D2 | GFED A,DCE D4 :|
|: d4 fafd BdBG | E2ef gfed c2A2 | d2c2 B3A  GFED  | GFED A,DCE D4 :|
